packages/tokens/icons/boxUp/size16Px.svg

<svg viewBox="0 0 16 16" fill="none" xmlns="http://www.w3.org/2000/svg" width="1em" height="1em"><path d="M5.5 5.5V5.5C4.39543 5.5 3.5 6.39543 3.5 7.5L3.5 12.5C3.5 13.6046 4.39543 14.5 5.5 14.5H10.5C11.6046 14.5 12.5 13.6046 12.5 12.5V7.5C12.5 6.39543 11.6046 5.5 10.5 5.5V5.5" stroke="currentColor" stroke-linecap="round"/><path d="M8 7.5L8 2" stroke="currentColor" stroke-linecap="round" stroke-linejoin="round"/><path d="M6 3.5L8 1.5L10 3.5" stroke="currentColor" stroke-linecap="round" stroke-linejoin="round"/></svg>

<svg xmlns="http://www.w3.org/2000/svg" fill="none" viewBox="0 0 16 16" width="1em" height="1em"><path stroke="currentColor" stroke-linecap="round" d="M5.5 5.5v0a2 2 0 0 0-2 2v5a2 2 0 0 0 2 2h5a2 2 0 0 0 2-2v-5a2 2 0 0 0-2-2v0"/><path stroke="currentColor" stroke-linecap="round" stroke-linejoin="round" d="M8 7.5V2M6 3.5l2-2 2 2"/></svg>
